cssgg/insert-after.svg

<svg
  width="24"
  height="24"
  viewBox="0 0 24 24"
  fill="none"
  xmlns="http://www.w3.org/2000/svg"
>
  <path
    d="M12 4C12.5523 4 13 4.44772 13 5V8H16C16.5523 8 17 8.44772 17 9C17 9.55228 16.5523 10 16 10H13V13C13 13.5523 12.5523 14 12 14C11.4477 14 11 13.5523 11 13V10H8C7.44772 10 7 9.55228 7 9C7 8.44772 7.44772 8 8 8H11V5C11 4.44772 11.4477 4 12 4Z"
    fill="currentColor"
  />
  <path
    d="M3 19C3 18.4477 3.44772 18 4 18H20C20.5523 18 21 18.4477 21 19C21 19.5523 20.5523 20 20 20H4C3.44772 20 3 19.5523 3 19Z"
    fill="currentColor"
  />
</svg>

<svg viewBox="0 0 24 24" xmlns="http://www.w3.org/2000/svg"><g><path d="M12 4c.55 0 1 .44 1 1v3h3c.55 0 1 .44 1 1 0 .55-.45 1-1 1h-3v3c0 .55-.45 1-1 1 -.56 0-1-.45-1-1v-3H8c-.56 0-1-.45-1-1 0-.56.44-1 1-1h3V5c0-.56.44-1 1-1Z"/><path d="M3 19c0-.56.44-1 1-1h16c.55 0 1 .44 1 1 0 .55-.45 1-1 1H4c-.56 0-1-.45-1-1Z"/></g></svg>
